storage/app/icons/phosphoricons/thin/sidebar-thin.svg

<svg xmlns="http://www.w3.org/2000/svg" fill="currentColor" viewBox="0 0 256 256"><path d="M216 44H40a12 12 0 0 0-12 12v144a12 12 0 0 0 12 12h176a12 12 0 0 0 12-12V56a12 12 0 0 0-12-12M36 200v-52h20a4 4 0 0 0 0-8H36v-24h20a4 4 0 0 0 0-8H36V84h20a4 4 0 0 0 0-8H36V56a4 4 0 0 1 4-4h44v152H40a4 4 0 0 1-4-4m184 0a4 4 0 0 1-4 4H92V52h124a4 4 0 0 1 4 4Z"/></svg>

<svg xmlns="http://www.w3.org/2000/svg" viewBox="0 0 256 256" fill="currentColor"><path d="M216,44H40A12,12,0,0,0,28,56V200a12,12,0,0,0,12,12H216a12,12,0,0,0,12-12V56A12,12,0,0,0,216,44ZM36,200V148H56a4,4,0,0,0,0-8H36V116H56a4,4,0,0,0,0-8H36V84H56a4,4,0,0,0,0-8H36V56a4,4,0,0,1,4-4H84V204H40A4,4,0,0,1,36,200Zm184,0a4,4,0,0,1-4,4H92V52H216a4,4,0,0,1,4,4Z"/></svg>
